app/images/icons/arrow-dark.svg

<svg xmlns="http://www.w3.org/2000/svg" preserveAspectRatio="xMidYMid" width="22" height="9"><path d="M.296 5.472L.288 5.47h16.956l-.1 2.859a.287.287 0 00-.084.205c0 .077.029.15.084.204l.172.174a.287.287 0 00.408 0L21.916 4.7a.287.287 0 000-.408L17.724.079a.293.293 0 00-.408 0l-.172.174a.282.282 0 00-.084.204.27.27 0 00.084.199l.113 2.865H.292A.298.298 0 000 3.817v1.37c0 .159.137.285.296.285z" fill="#9abcca" fill-rule="evenodd"/></svg>

<svg xmlns="http://www.w3.org/2000/svg" xmlns:xlink="http://www.w3.org/1999/xlink" preserveAspectRatio="xMidYMid" width="22" height="9" viewBox="0 0 22 9">
  <defs>
    <style>
      .cls-1 {
        fill: #9ABCCA;
        fill-rule: evenodd;
      }
    </style>
  </defs>
  <path d="M0.296,5.472 L0.288,5.470 L17.244,5.470 L17.144,8.329 C17.089,8.383 17.060,8.458 17.060,8.534 C17.060,8.611 17.089,8.684 17.144,8.738 L17.316,8.912 C17.370,8.966 17.443,8.996 17.520,8.996 C17.597,8.996 17.669,8.966 17.724,8.912 L21.916,4.700 C21.970,4.646 22.000,4.573 22.000,4.496 C22.000,4.419 21.970,4.346 21.916,4.292 L17.724,0.079 C17.669,0.026 17.597,-0.004 17.520,-0.004 C17.443,-0.004 17.370,0.026 17.316,0.079 L17.144,0.253 C17.089,0.307 17.060,0.379 17.060,0.457 C17.060,0.534 17.089,0.603 17.144,0.656 L17.257,3.521 L0.292,3.521 C0.133,3.521 -0.000,3.658 -0.000,3.817 L-0.000,5.187 C-0.000,5.346 0.137,5.472 0.296,5.472 Z" class="cls-1"/>
</svg>
